X: 10787
T: Drag Her Round The Road
R: reel
M: 4/4
K: Eminor
BEED E2 B,E|GEDB, D2GA|BEED E2DE|GABG ABGA|
BE (3EEE B,E (3EEE|GEDB, D2GA|BEED E2DE|GABG ADEF||
[G,3G3]F GBdc|~B3 A BcBA|G2GF GBdB|AGBG ADEF|
~G3F GBdB|c2AB cdef|gedB c2ge|dBGB A2GA||

